Numix/24/panel/kazam-countdown.svg

<?xml version="1.0" encoding="UTF-8" standalone="no"?>
<!-- Created with Inkscape (http://www.inkscape.org/) -->

<svg
   xmlns:dc="http://purl.org/dc/elements/1.1/"
   xmlns:cc="http://creativecommons.org/ns#"
   xmlns:rdf="http://www.w3.org/1999/02/22-rdf-syntax-ns#"
   xmlns:svg="http://www.w3.org/2000/svg"
   xmlns="http://www.w3.org/2000/svg"
   xmlns:sodipodi="http://sodipodi.sourceforge.net/DTD/sodipodi-0.dtd"
   xmlns:inkscape="http://www.inkscape.org/namespaces/inkscape"
   id="svg2"
   version="1.1"
   inkscape:version="0.91 r"
   width="24"
   height="24"
   viewBox="0 0 24 24"
   sodipodi:docname="kazam-countdown.svg">
  <metadata
     id="metadata8">
    <rdf:RDF>
      <cc:Work
         rdf:about="">
        <dc:format>image/svg+xml</dc:format>
        <dc:type
           rdf:resource="http://purl.org/dc/dcmitype/StillImage" />
        <dc:title />
      </cc:Work>
    </rdf:RDF>
  </metadata>
  <defs
     id="defs6" />
  <sodipodi:namedview
     pagecolor="#ffffff"
     bordercolor="#666666"
     borderopacity="1"
     objecttolerance="10"
     gridtolerance="10"
     guidetolerance="10"
     inkscape:pageopacity="0"
     inkscape:pageshadow="2"
     inkscape:window-width="1366"
     inkscape:window-height="747"
     id="namedview4"
     showgrid="true"
     inkscape:zoom="21.454545"
     inkscape:cx="5.1561362"
     inkscape:cy="11.731204"
     inkscape:window-x="0"
     inkscape:window-y="21"
     inkscape:window-maximized="1"
     inkscape:current-layer="svg2">
    <inkscape:grid
       type="xygrid"
       id="grid4138" />
  </sodipodi:namedview>
  <path
     style="color:#000000;font-style:normal;font-variant:normal;font-weight:normal;font-stretch:normal;font-size:medium;line-height:normal;font-family:sans-serif;text-indent:0;text-align:start;text-decoration:none;text-decoration-line:none;text-decoration-style:solid;text-decoration-color:#000000;letter-spacing:normal;word-spacing:normal;text-transform:none;direction:ltr;block-progression:tb;writing-mode:lr-tb;baseline-shift:baseline;text-anchor:start;white-space:normal;clip-rule:nonzero;display:inline;overflow:visible;visibility:visible;opacity:1;isolation:auto;mix-blend-mode:normal;color-interpolation:sRGB;color-interpolation-filters:linearRGB;solid-color:#000000;solid-opacity:1;fill:#ececec;fill-opacity:1;fill-rule:evenodd;stroke:none;stroke-width:1;stroke-linecap:butt;stroke-linejoin:round;stroke-miterlimit:4;stroke-dasharray:none;stroke-dashoffset:0;stroke-opacity:1;color-rendering:auto;image-rendering:auto;shape-rendering:auto;text-rendering:auto;enable-background:accumulate"
     d="M 3,5 C 2.7238691,5.0000276 2.5000276,5.2238691 2.5,5.5 l 0,13 c 2.76e-5,0.276131 0.2238691,0.499972 0.5,0.5 l 12,0 c 0.276131,-2.8e-5 0.499972,-0.223869 0.5,-0.5 l 0,-3.191406 5.277344,2.638672 C 21.109563,18.112428 21.499627,17.871009 21.5,17.5 l 0,-11 C 21.499627,6.1289908 21.109563,5.8875729 20.777344,6.0527344 L 15.5,8.6914062 15.5,5.5 C 15.499972,5.2238691 15.276131,5.0000276 15,5 L 3,5 Z M 9,7 C 9.4105556,7 9.75,7.3394443 9.75,7.75 9.75,8.1605556 9.4105556,8.4999999 9,8.5 8.5894443,8.5 8.2499999,8.1605557 8.25,7.75 8.2499999,7.3394443 8.5894443,6.9999999 9,7 Z M 5.9941406,8.2460938 c 0.1925884,0 0.3860966,0.073597 0.53125,0.21875 0.2903066,0.2903066 0.2903068,0.7702402 0,1.0605472 -0.290307,0.290306 -0.7702401,0.290306 -1.0605468,0 -0.2903068,-0.290307 -0.2903071,-0.7702403 0,-1.0605472 0.1451534,-0.1451535 0.3367085,-0.2187501 0.5292968,-0.21875 z m 6.0117184,0 c 0.192589,0 0.384144,0.073597 0.529297,0.21875 0.290307,0.2903069 0.290307,0.7702402 0,1.0605472 -0.290306,0.290306 -0.77024,0.290306 -1.060547,0 -0.290307,-0.290307 -0.290306,-0.7702411 0,-1.0605472 0.145154,-0.1451535 0.338662,-0.21875 0.53125,-0.21875 z M 4.75,11.25 c 0.4105556,0 0.75,0.339445 0.75,0.75 0,0.410556 -0.3394444,0.75 -0.75,0.75 C 4.3394443,12.75 3.9999999,12.410556 4,12 c -10e-8,-0.410555 0.3394443,-0.75 0.75,-0.75 z m 8.5,0 c 0.410556,0 0.75,0.339444 0.75,0.75 0,0.410556 -0.339444,0.75 -0.75,0.75 -0.410555,0 -0.75,-0.339444 -0.75,-0.75 0,-0.410556 0.339445,-0.75 0.75,-0.75 z m -7.2558594,3.007812 c 0.1925885,3e-6 0.3860969,0.07164 0.53125,0.216797 0.2903069,0.290307 0.2903066,0.77024 0,1.060547 -0.2903068,0.290307 -0.7702399,0.290307 -1.0605468,0 -0.2903064,-0.290306 -0.2903068,-0.770241 0,-1.060547 0.1451532,-0.145153 0.3367084,-0.216797 0.5292968,-0.216797 z m 6.0117184,0 c 0.192589,5e-6 0.384144,0.07164 0.529297,0.216797 0.290307,0.290307 0.290307,0.77024 0,1.060547 -0.290307,0.290307 -0.77024,0.290307 -1.060547,0 -0.290306,-0.290306 -0.290307,-0.77024 0,-1.060547 0.145154,-0.145153 0.338662,-0.216797 0.53125,-0.216797 z M 9,15.5 c 0.4105556,0 0.75,0.339445 0.75,0.75 C 9.75,16.660556 9.4105556,17 9,17 8.5894443,17 8.2499999,16.660556 8.25,16.25 8.2499999,15.839445 8.5894443,15.5 9,15.5 Z"
     id="path4140"
     inkscape:connector-curvature="0" />
</svg>

<!-- Created with Inkscape (http://www.inkscape.org/) -->
<svg xmlns="http://www.w3.org/2000/svg" viewBox="0 0 24 24">
 <path d="m 3 5 c -0.276 0 -0.5 0.224 -0.5 0.5 l 0 13 c 0 0.276 0.224 0.5 0.5 0.5 l 12 0 c 0.276 0 0.5 -0.224 0.5 -0.5 l 0 -3.191 5.277 2.639 c 0.332 0.165 0.722 -0.076 0.723 -0.447 l 0 -11 c 0 -0.371 -0.39 -0.612 -0.723 -0.447 l -5.277 2.639 0 -3.191 c 0 -0.276 -0.224 -0.5 -0.5 -0.5 l -12 0 m 6 2 c 0.411 0 0.75 0.339 0.75 0.75 0 0.411 -0.339 0.75 -0.75 0.75 -0.411 0 -0.75 -0.339 -0.75 -0.75 0 -0.411 0.339 -0.75 0.75 -0.75 m -3.01 1.246 c 0.193 0 0.386 0.074 0.531 0.219 0.29 0.29 0.29 0.77 0 1.061 -0.29 0.29 -0.77 0.29 -1.061 0 -0.29 -0.29 -0.29 -0.77 0 -1.061 0.145 -0.145 0.337 -0.219 0.529 -0.219 z m 6.01 0 c 0.193 0 0.384 0.074 0.529 0.219 0.29 0.29 0.29 0.77 0 1.061 -0.29 0.29 -0.77 0.29 -1.061 0 -0.29 -0.29 -0.29 -0.77 0 -1.061 0.145 -0.145 0.339 -0.219 0.531 -0.219 z m -7.256 3 c 0.411 0 0.75 0.339 0.75 0.75 0 0.411 -0.339 0.75 -0.75 0.75 c -0.411 0 -0.75 -0.339 -0.75 -0.75 c 0 -0.411 0.339 -0.75 0.75 -0.75 z m 8.5 0 c 0.411 0 0.75 0.339 0.75 0.75 0 0.411 -0.339 0.75 -0.75 0.75 -0.411 0 -0.75 -0.339 -0.75 -0.75 0 -0.411 0.339 -0.75 0.75 -0.75 z m -7.256 3.01 c 0.193 0 0.386 0.072 0.531 0.217 0.29 0.29 0.29 0.77 0 1.061 -0.29 0.29 -0.77 0.29 -1.061 0 -0.29 -0.29 -0.29 -0.77 0 -1.061 0.145 -0.145 0.337 -0.217 0.529 -0.217 z m 6.01 0 c 0.193 0 0.384 0.072 0.529 0.217 0.29 0.29 0.29 0.77 0 1.061 -0.29 0.29 -0.77 0.29 -1.061 0 -0.29 -0.29 -0.29 -0.77 0 -1.061 0.145 -0.145 0.339 -0.217 0.531 -0.217 z m -3.01 1.242 c 0.411 0 0.75 0.339 0.75 0.75 c 0 0.411 -0.339 0.75 -0.75 0.75 -0.411 0 -0.75 -0.339 -0.75 -0.75 0 -0.411 0.339 -0.75 0.75 -0.75" mix-blend-mode="normal" isolation="auto" white-space="normal" solid-opacity="1" solid-color="#000000" style="visibility:visible;shape-rendering:auto;color-interpolation-filters:linearRGB;fill:#ececec;opacity:1;image-rendering:auto;fill-opacity:1;stroke:none;display:inline;color:#000;fill-rule:evenodd;color-rendering:auto;color-interpolation:sRGB"/>
</svg>
